X: 8139
T: Conversation, The
R: jig
M: 6/8
K: Dmixolydian
|:d2d A2A|EEE EDC|CCC c2c|ccc cCC|
DDD d2d|edc cde|dBG GAB|DDD D3:|
|:c2c d2d|edc cde|dBG GAB|EEE EDC|
DDD d2d|edc cde|dBG GAB|DDD D3:|

